icons/svg/camera_120.svg

<?xml version="1.0" encoding="UTF-8"?>
<svg width="120px" height="120px" viewBox="0 0 120 120" version="1.1" xmlns="http://www.w3.org/2000/svg" xmlns:xlink="http://www.w3.org/1999/xlink">
    <!-- Generator: Sketch 57.1 (83088) - https://sketch.com -->
    <title>activities/camera_120</title>
    <desc>Created with Sketch.</desc>
    <g id="Icons-Webex" stroke="none" stroke-width="1" fill="none" fill-rule="evenodd">
        <g id="activities/camera_120" fill="#171B1F">
            <path d="M118,82.2432 C118,83.8412 116.979,84.8282 116.024,85.2202 C114.836,85.7082 113.531,85.4372 112.622,84.5142 L90.177,61.7222 C90.125,61.6702 90.064,61.6342 90,61.6092 L90,58.3902 C90.064,58.3662 90.125,58.3292 90.177,58.2772 L112.622,35.4862 C113.531,34.5632 114.836,34.2932 116.024,34.7802 C116.979,35.1722 118,36.1592 118,37.7572 L118,82.2432 Z M89,89.4102 C89,95.2492 84.249,100.0002 78.409,100.0002 L12.591,100.0002 C6.751,100.0002 2,95.2492 2,89.4102 L2,30.5902 C2,24.7512 6.751,20.0002 12.591,20.0002 L78.409,20.0002 C84.249,20.0002 89,24.7512 89,30.5902 L89,89.4102 Z M116.403,33.8552 C114.831,33.2112 113.108,33.5662 111.909,34.7842 L90,57.0312 L90,30.5902 C90,24.1992 84.801,19.0002 78.409,19.0002 L12.591,19.0002 C6.199,19.0002 1,24.1992 1,30.5902 L1,89.4102 C1,95.8012 6.199,101.0002 12.591,101.0002 L78.409,101.0002 C84.801,101.0002 90,95.8012 90,89.4102 L90,62.9692 L111.909,85.2162 C112.713,86.0322 113.752,86.4612 114.823,86.4612 C115.351,86.4612 115.885,86.3572 116.403,86.1452 C118.005,85.4892 119,83.9932 119,82.2432 L119,37.7572 C119,36.0062 118.005,34.5112 116.403,33.8552 L116.403,33.8552 Z" id="fill"></path>
        </g>
    </g>
</svg>

<svg width="120" height="120" xmlns="http://www.w3.org/2000/svg"><path d="M118 82.243c0 1.598-1.021 2.585-1.976 2.977-1.188.488-2.493.217-3.402-.706L90.177 61.722A.508.508 0 0090 61.61V58.39a.495.495 0 00.177-.113l22.445-22.79c.909-.924 2.214-1.194 3.402-.707.955.392 1.976 1.38 1.976 2.977v44.486zM89 89.41C89 95.25 84.249 100 78.409 100H12.591C6.751 100 2 95.25 2 89.41V30.59C2 24.751 6.751 20 12.591 20h65.818C84.249 20 89 24.751 89 30.59v58.82zm27.403-55.555c-1.572-.644-3.295-.289-4.494.93L90 57.03v-26.44C90 24.198 84.801 19 78.409 19H12.591C6.199 19 1 24.198 1 30.59v58.82C1 95.8 6.199 101 12.591 101h65.818C84.801 101 90 95.8 90 89.41V62.968l21.909 22.247c.804.816 1.843 1.245 2.914 1.245.528 0 1.062-.104 1.58-.316 1.602-.656 2.597-2.152 2.597-3.902V37.757c0-1.75-.995-3.246-2.597-3.902z" fill="#171B1F" fill-rule="evenodd"/></svg>
